gdscript/src/main/resources/icons/godot_editor/BoneMapHumanFace.svg

<svg width="256" height="256" viewBox="0 0 256 256" fill="none" xmlns="http://www.w3.org/2000/svg"><g clip-path="url(#clip0_1451_458)"><path d="M0 0H256V256H0V0Z" fill="#3F3F3F"/><path d="M197.026 138.242C201.525 123.769 205 107.1 204.745 88.724C203.805 21.1232 142.283 25.8542 130.853 27.4872C40.8859 40.3395 76.0912 140.577 75.7397 151.594C74.5149 189.968 96.6612 194.342 116.156 205.482C116.817 205.86 117.971 205.929 119.484 205.76C121.29 212.055 122.425 220.519 121.871 224.669C121.055 230.793 174.126 230.793 174.126 224.669C174.126 208.949 177.185 193.579 182.583 177.447C184.369 176.876 186.597 175.547 189.074 173.21C192.494 169.983 197.784 167.766 200.505 157.423C204.409 142.589 201.473 138.405 197.026 138.242Z" fill="#B2B2B2"/></g><defs><clipPath id="clip0_1451_458"><rect width="256" height="256" fill="white"/></clipPath></defs></svg>

<svg width="256" height="256" viewBox="0 0 256 256" xmlns="http://www.w3.org/2000/svg"><path d="M0 0h256v256H0V0Z" fill="#3f3f3f"/><path d="M197.026 138.242c4.499-14.473 7.974-31.142 7.719-49.518-.94-67.6-62.462-62.87-73.892-61.237C40.886 40.34 76.091 140.577 75.74 151.594c-1.225 38.374 20.921 42.748 40.416 53.888.661.378 1.815.447 3.328.278 1.806 6.295 2.941 14.759 2.387 18.909-.816 6.124 52.255 6.124 52.255 0 0-15.72 3.059-31.09 8.457-47.222 1.786-.571 4.014-1.9 6.491-4.237 3.42-3.227 8.71-5.444 11.431-15.787 3.904-14.834.968-19.018-3.479-19.181Z" fill="#b2b2b2"/></svg>
